DVA
CUT[Auf der letzten Reise litt ich etwas Not
    fehlt es mir an Speise, kauft ich mir das Brot]
REG[Europa, Mitteleuropa, Deutschland, Wolga - Kolonie]
KEY[D0146  16  A 4/4]
MEL[  -5_.11_1_3__1__  4_3_2_1_2___
    -5_-6_-7_1_2_3_4__  5_.43_2_1___
    5_5_6_5_+1__5_3_  6_5_4_3_3_4_2__
    -5_.11_1_3_3_1_3_  5_5_5_.65__.
    3_  5_5_6_7_+1_6_5_4_  3_4_2__1___ //] >>
FCT[Wander - Lied, Handwerksburschen - Lied]
CMT[Inzipit = Transposition zum Lied]
